apps/32/accessories-calculator.svg

<?xml version="1.0" encoding="UTF-8" standalone="no"?>
<!-- Created with Inkscape (http://www.inkscape.org/) -->

<svg
   width="32"
   height="32"
   version="1.1"
   viewBox="0 0 32 32"
   id="svg22"
   xmlns:xlink="http://www.w3.org/1999/xlink"
   xmlns="http://www.w3.org/2000/svg"
   xmlns:svg="http://www.w3.org/2000/svg">
  <defs
     id="defs12">
    <linearGradient
       id="linearGradient1005-3-3"
       x1="5.2535"
       x2="9.3823996"
       y1="15.383"
       y2="2.9421"
       gradientTransform="matrix(0.99999,0,0,0.99999,1.632,-0.61743)"
       gradientUnits="userSpaceOnUse">
      <stop
         stop-color="#fa8200"
         offset="0"
         id="stop2" />
      <stop
         stop-color="#ff9600"
         offset=".36953"
         id="stop4" />
      <stop
         stop-color="#ffb400"
         offset="1"
         id="stop6" />
    </linearGradient>
    <filter
       id="filter4014"
       x="-0.062499933"
       y="-0.057692993"
       width="1.1249999"
       height="1.115386"
       color-interpolation-filters="sRGB">
      <feGaussianBlur
         stdDeviation="1.093751"
         id="feGaussianBlur9" />
    </filter>
    <linearGradient
       xlink:href="#linearGradient3487"
       id="linearGradient3403"
       gradientUnits="userSpaceOnUse"
       x1="6.9491749"
       y1="4.5549412"
       x2="11.215498"
       y2="59.052471" />
    <linearGradient
       id="linearGradient3487">
      <stop
         style="stop-color:#32373c;stop-opacity:1"
         offset="0"
         id="stop3481" />
      <stop
         id="stop3483"
         offset="0.36804965"
         style="stop-color:#1a1a1a;stop-opacity:1" />
      <stop
         style="stop-color:#31363b;stop-opacity:1"
         offset="1"
         id="stop3485" />
    </linearGradient>
    <linearGradient
       xlink:href="#linearGradient20604"
       id="linearGradient20558"
       gradientUnits="userSpaceOnUse"
       x1="25.802212"
       y1="20.373846"
       x2="25.111048"
       y2="58.912758" />
    <linearGradient
       id="linearGradient20604">
      <stop
         id="stop20598"
         offset="0"
         style="stop-color:#3d3d3d;stop-opacity:1" />
      <stop
         style="stop-color:#000000;stop-opacity:1"
         offset="0.61772454"
         id="stop20600" />
      <stop
         id="stop20602"
         offset="1"
         style="stop-color:#3d3d3d;stop-opacity:1" />
    </linearGradient>
    <filter
       style="color-interpolation-filters:sRGB"
       id="filter20720"
       x="-0.017024755"
       y="-0.016457183"
       width="1.0340491"
       height="1.0329144">
      <feGaussianBlur
         stdDeviation="0.14745661"
         id="feGaussianBlur20722" />
    </filter>
    <linearGradient
       gradientTransform="translate(0.36067797,-0.13016949)"
       xlink:href="#linearGradient4555"
       id="linearGradient4557"
       x1="43.499737"
       y1="64.011795"
       x2="44.141731"
       y2="0.30621234"
       gradientUnits="userSpaceOnUse" />
    <linearGradient
       id="linearGradient4555">
      <stop
         style="stop-color:#141618;stop-opacity:1"
         offset="0"
         id="stop4551" />
      <stop
         id="stop4559"
         offset="0.51820582"
         style="stop-color:#686868;stop-opacity:1" />
      <stop
         style="stop-color:#31363b;stop-opacity:1"
         offset="1"
         id="stop4553" />
    </linearGradient>
    <filter
       style="color-interpolation-filters:sRGB"
       id="filter4601"
       x="-0.030244762"
       width="1.0604895"
       y="-0.030100647"
       height="1.0602013">
      <feGaussianBlur
         stdDeviation="0.014790289"
         id="feGaussianBlur4603" />
    </filter>
    <linearGradient
       gradientTransform="matrix(1.3440543,0,0,1.0576269,-524.86688,-529.76832)"
       gradientUnits="userSpaceOnUse"
       x2="0"
       y2="503.79999"
       y1="543.79999"
       id="a-3">
      <stop
         id="stop6502"
         stop-color="#2a2c2f" />
      <stop
         id="stop6504"
         stop-color="#424649"
         offset="1" />
    </linearGradient>
    <linearGradient
       gradientTransform="translate(0,-12)"
       x2="416.57001"
       gradientUnits="userSpaceOnUse"
       y2="543.79999"
       x1="404.57001"
       y1="531.79999"
       id="h"
       xlink:href="#f" />
    <linearGradient
       gradientUnits="userSpaceOnUse"
       x2="42"
       y2="30"
       x1="32"
       y1="20"
       id="f">
      <stop
         id="stop6523"
         stop-color="#383e51" />
      <stop
         id="stop6525"
         stop-opacity="0"
         stop-color="#655c6f"
         offset="1" />
    </linearGradient>
    <linearGradient
       gradientTransform="translate(-12,-12)"
       x2="416.57001"
       gradientUnits="userSpaceOnUse"
       y2="543.79999"
       x1="404.57001"
       y1="531.79999"
       id="i"
       xlink:href="#f" />
    <linearGradient
       gradientTransform="translate(-12)"
       x2="416.57001"
       gradientUnits="userSpaceOnUse"
       y2="543.79999"
       x1="404.57001"
       y1="531.79999"
       id="j"
       xlink:href="#f" />
    <linearGradient
       gradientTransform="translate(-384.57,-499.8)"
       gradientUnits="userSpaceOnUse"
       x2="416.57001"
       y2="543.79999"
       x1="404.57001"
       y1="531.79999"
       id="g"
       xlink:href="#f" />
    <linearGradient
       xlink:href="#f"
       id="linearGradient6644"
       gradientUnits="userSpaceOnUse"
       x1="32"
       y1="20"
       x2="42"
       y2="30"
       gradientTransform="matrix(1.194715,0,0,1.0576269,-4.4012464,-1.1663925)" />
    <linearGradient
       gradientTransform="matrix(1.194715,0,0,1.2087196,-463.85279,-611.62866)"
       gradientUnits="userSpaceOnUse"
       x2="0"
       y2="522.54999"
       y1="540.91998"
       id="b-6">
      <stop
         id="stop6507"
         stop-color="#197cf1" />
      <stop
         id="stop6509"
         stop-color="#05a0eb"
         offset="1" />
    </linearGradient>
    <linearGradient
       gradientTransform="matrix(1.194715,0,0,1.0576269,-463.85279,-559.38188)"
       x2="0"
       gradientUnits="userSpaceOnUse"
       y2="533.79999"
       y1="542.79999"
       id="c-7">
      <stop
         id="stop6512"
         stop-color="#bcb4a1" />
      <stop
         id="stop6514"
         stop-color="#c5bfad"
         offset="1" />
    </linearGradient>
    <linearGradient
       xlink:href="#d"
       id="linearGradient6646"
       gradientUnits="userSpaceOnUse"
       y1="540.79999"
       x2="0"
       y2="531.79999"
       gradientTransform="matrix(1.194715,0,0,1.0576269,-463.85279,-529.76832)" />
    <linearGradient
       x2="0"
       gradientUnits="userSpaceOnUse"
       y2="531.79999"
       y1="540.79999"
       id="d">
      <stop
         id="stop6517"
         stop-color="#1e1f21" />
      <stop
         id="stop6519"
         stop-color="#242628"
         offset="1" />
    </linearGradient>
    <linearGradient
       x2="0"
       gradientUnits="userSpaceOnUse"
       y2="519.79999"
       y1="528.79999"
       id="e"
       xlink:href="#d" />
    <linearGradient
       x2="0"
       gradientUnits="userSpaceOnUse"
       y2="531.79999"
       y1="540.79999"
       id="linearGradient1226">
      <stop
         id="stop1222"
         stop-color="#1e1f21" />
      <stop
         id="stop1224"
         stop-color="#242628"
         offset="1" />
    </linearGradient>
    <linearGradient
       xlink:href="#d"
       id="linearGradient6648"
       gradientUnits="userSpaceOnUse"
       y1="528.79999"
       x2="0"
       y2="519.79999" />
    <linearGradient
       x2="0"
       gradientUnits="userSpaceOnUse"
       y2="531.79999"
       y1="540.79999"
       id="linearGradient1233">
      <stop
         id="stop1229"
         stop-color="#1e1f21" />
      <stop
         id="stop1231"
         stop-color="#242628"
         offset="1" />
    </linearGradient>
    <linearGradient
       xlink:href="#d"
       id="linearGradient6650"
       gradientUnits="userSpaceOnUse"
       y1="528.79999"
       x2="0"
       y2="519.79999" />
    <linearGradient
       x2="0"
       gradientUnits="userSpaceOnUse"
       y2="531.79999"
       y1="540.79999"
       id="linearGradient1240">
      <stop
         id="stop1236"
         stop-color="#1e1f21" />
      <stop
         id="stop1238"
         stop-color="#242628"
         offset="1" />
    </linearGradient>
    <linearGradient
       xlink:href="#d"
       id="linearGradient6652"
       gradientUnits="userSpaceOnUse"
       y1="540.79999"
       x2="0"
       y2="531.79999"
       gradientTransform="matrix(1.194715,0,0,1.0576269,-463.85279,-529.76832)" />
    <linearGradient
       x2="0"
       gradientUnits="userSpaceOnUse"
       y2="531.79999"
       y1="540.79999"
       id="linearGradient1247">
      <stop
         id="stop1243"
         stop-color="#1e1f21" />
      <stop
         id="stop1245"
         stop-color="#242628"
         offset="1" />
    </linearGradient>
  </defs>
  <g
     id="g11956"
     transform="scale(0.66499999)">
    <rect
       style="display:inline;fill:url(#a-3);stroke-width:1.12408"
       id="rect6534"
       height="42.305077"
       rx="0"
       y="3.0641031"
       x="2.7670512"
       width="43.009739" />
    <g
       id="g6544"
       style="display:inline;fill-rule:evenodd"
       transform="matrix(1.194715,0,0,1.0576269,-463.85279,-529.76832)">
      <path
         id="path6536"
         d="m 413.57,519.8 -9,9 3,3 h 18 z"
         style="opacity:0.2;fill:url(#h)" />
      <path
         id="path6538"
         d="m 401.57,519.8 -9,9 3,3 h 18 z"
         style="opacity:0.2;fill:url(#i)" />
      <path
         id="path6540"
         d="m 401.57,531.8 -9,9 3,3 h 18 z"
         style="opacity:0.2;fill:url(#j)" />
      <path
         id="path6542"
         transform="translate(384.57,499.8)"
         d="m 29,32 -9,9 3,3 h 18 z"
         style="opacity:0.2;fill:url(#g)" />
    </g>
    <path
       id="path6548"
       d="m 43.387353,19.986145 -9.557719,22.210166 3.584144,3.172881 h 8.363005 V 22.1014 Z"
       style="display:inline;opacity:0.2;fill:url(#linearGradient6644);fill-rule:evenodd;stroke-width:1.12408" />
    <rect
       style="display:inline;fill:url(#b-6);stroke-width:1.12408"
       id="rect6550"
       height="22.210165"
       rx="0"
       y="19.986134"
       x="33.829643"
       width="9.5577192" />
    <rect
       style="display:inline;fill:url(#c-7);stroke-width:1.12408"
       id="rect6552"
       height="9.5186424"
       y="5.1793561"
       x="5.156486"
       width="38.230877" />
    <path
       id="path6554"
       d="m 36.219064,35.85055 v 1.057626 h 4.778859 V 35.85055 Z m 0,2.115254 v 1.057627 h 4.778859 v -1.057627 z"
       style="display:inline;fill:#ffffff;stroke-width:1.12408" />
    <g
       id="g6564"
       style="display:inline;fill:#383432"
       transform="matrix(1.194715,0,0,1.0576269,-463.85279,-529.76832)">
      <rect
         id="rect6556"
         height="1"
         y="506.79999"
         x="418.57001"
         width="3" />
      <rect
         id="rect6558"
         height="5"
         y="507.79999"
         x="421.57001"
         width="1" />
      <rect
         id="rect6560"
         height="1"
         y="512.79999"
         x="418.57001"
         width="3" />
      <rect
         id="rect6562"
         height="5"
         y="507.79999"
         x="417.57001"
         width="1" />
    </g>
    <rect
       id="rect6566"
       height="9.5186424"
       rx="0"
       y="32.677658"
       x="5.156486"
       width="10.752435"
       style="display:inline;fill:url(#linearGradient6646);stroke-width:1.12408" />
    <g
       id="g6572"
       style="display:inline;fill:url(#e)"
       transform="matrix(1.194715,0,0,1.0576269,-463.85279,-529.76832)">
      <rect
         id="rect6568"
         height="9"
         rx="0"
         y="519.79999"
         x="392.57001"
         width="9"
         style="fill:url(#linearGradient6648)" />
      <rect
         id="rect6570"
         height="9"
         rx="0"
         y="519.79999"
         x="404.57001"
         width="9"
         style="fill:url(#linearGradient6650)" />
    </g>
    <rect
       id="rect6574"
       height="9.5186424"
       rx="0"
       y="32.677658"
       x="19.493063"
       width="10.752435"
       style="display:inline;fill:url(#linearGradient6652);stroke-width:1.12408" />
    <g
       id="g6586"
       style="display:inline;fill:#ffffff"
       transform="matrix(1.194715,0,0,1.0576269,-463.85279,-529.76832)">
      <path
         id="path6576"
         transform="translate(384.57,499.8)"
         d="m 12,22 v 2 h -2 v 1 h 2 v 2 h 1 v -2 h 2 v -1 h -2 v -2 z" />
      <rect
         id="rect6578"
         transform="rotate(90)"
         height="5"
         rx="0"
         y="-411.57001"
         x="523.79999"
         width="1" />
      <g
         id="g6584"
         transform="translate(384.57,499.8)">
        <path
           id="path6580"
           d="M 12.5,34 A 0.5,0.5 0 0 0 12,34.5 0.5,0.5 0 0 0 12.5,35 0.5,0.5 0 0 0 13,34.5 0.5,0.5 0 0 0 12.5,34 M 10,36 v 1 h 5 v -1 z m 2.5,2 A 0.5,0.5 0 0 0 12,38.5 0.5,0.5 0 0 0 12.5,39 0.5,0.5 0 0 0 13,38.5 0.5,0.5 0 0 0 12.5,38" />
        <path
           id="path6582"
           d="M 22.707,34 22,34.707 23.793,36.5 22,38.293 22.707,39 24.5,37.207 26.293,39 27,38.293 25.207,36.5 27,34.707 26.293,34 24.5,35.793 Z" />
      </g>
    </g>
  </g>
  <path
     style="display:inline;mix-blend-mode:normal;fill:url(#linearGradient3403);fill-opacity:1;stroke:url(#linearGradient20558);stroke-width:1.16242;stroke-linecap:butt;stroke-linejoin:round;stroke-miterlimit:4;stroke-dasharray:none;stroke-opacity:1;filter:url(#filter20720)"
     d="M 4.7043071,3.9814882 4.6913695,60.80196 H 58.59546 l 1.022155,-2.866369 c 0,0 -23.87537,0.766388 -32.844441,-4.140386 C 16.257548,48.042344 11.401114,4.0978197 11.401114,4.0978197 Z"
     id="path1686"
     transform="matrix(0.49999999,0,0,0.5,0.06630363,0.01654935)" />
  <rect
     style="display:inline;fill:none;fill-opacity:1;stroke:url(#linearGradient4557);stroke-width:3.71366;stroke-linejoin:round;stroke-miterlimit:7.8;stroke-dasharray:none;stroke-opacity:0.995146;filter:url(#filter4601)"
     id="rect4539"
     width="62.567089"
     height="62.866646"
     x="1.0323594"
     y="0.59551275"
     ry="6.2447233"
     rx="5.8029528"
     transform="matrix(0.46839137,0,0,0.46743669,0.90638486,1.0268972)" />
</svg>

<svg width="32" height="32" version="1.1" viewBox="0 0 32 32" xmlns="http://www.w3.org/2000/svg" xmlns:xlink="http://www.w3.org/1999/xlink">
<defs>
<linearGradient id="linearGradient3403" x1="6.9492" x2="11.215" y1="4.5549" y2="59.052" gradientUnits="userSpaceOnUse">
<stop style="stop-color:#32373c" offset="0"/>
<stop style="stop-color:#1a1a1a" offset=".36805"/>
<stop style="stop-color:#31363b" offset="1"/>
</linearGradient>
<linearGradient id="linearGradient20558" x1="25.802" x2="25.111" y1="20.374" y2="58.913" gradientUnits="userSpaceOnUse">
<stop style="stop-color:#3d3d3d" offset="0"/>
<stop offset=".61772"/>
<stop style="stop-color:#3d3d3d" offset="1"/>
</linearGradient>
<linearGradient id="linearGradient4557" x1="43.5" x2="44.142" y1="64.012" y2=".30621" gradientTransform="translate(.36068 -.13017)" gradientUnits="userSpaceOnUse">
<stop style="stop-color:#141618" offset="0"/>
<stop style="stop-color:#686868" offset=".51821"/>
<stop style="stop-color:#31363b" offset="1"/>
</linearGradient>
<linearGradient id="a-3" x2="0" y1="543.8" y2="503.8" gradientTransform="matrix(1.3441 0 0 1.0576 -524.87 -529.77)" gradientUnits="userSpaceOnUse">
<stop stop-color="#2a2c2f" offset="0"/>
<stop stop-color="#424649" offset="1"/>
</linearGradient>
<linearGradient id="h" x1="404.57" x2="416.57" y1="531.8" y2="543.8" gradientTransform="translate(0,-12)" gradientUnits="userSpaceOnUse" xlink:href="#f"/>
<linearGradient id="f" x1="32" x2="42" y1="20" y2="30" gradientUnits="userSpaceOnUse">
<stop stop-color="#383e51" offset="0"/>
<stop stop-color="#655c6f" stop-opacity="0" offset="1"/>
</linearGradient>
<linearGradient id="i" x1="404.57" x2="416.57" y1="531.8" y2="543.8" gradientTransform="translate(-12,-12)" gradientUnits="userSpaceOnUse" xlink:href="#f"/>
<linearGradient id="j" x1="404.57" x2="416.57" y1="531.8" y2="543.8" gradientTransform="translate(-12)" gradientUnits="userSpaceOnUse" xlink:href="#f"/>
<linearGradient id="g" x1="404.57" x2="416.57" y1="531.8" y2="543.8" gradientTransform="translate(-384.57,-499.8)" gradientUnits="userSpaceOnUse" xlink:href="#f"/>
<linearGradient id="linearGradient6644" x1="32" x2="42" y1="20" y2="30" gradientTransform="matrix(1.1947 0 0 1.0576 -4.4012 -1.1664)" gradientUnits="userSpaceOnUse" xlink:href="#f"/>
<linearGradient id="b-6" x2="0" y1="540.92" y2="522.55" gradientTransform="matrix(1.1947 0 0 1.2087 -463.85 -611.63)" gradientUnits="userSpaceOnUse">
<stop stop-color="#197cf1" offset="0"/>
<stop stop-color="#05a0eb" offset="1"/>
</linearGradient>
<linearGradient id="c-7" x2="0" y1="542.8" y2="533.8" gradientTransform="matrix(1.1947 0 0 1.0576 -463.85 -559.38)" gradientUnits="userSpaceOnUse">
<stop stop-color="#bcb4a1" offset="0"/>
<stop stop-color="#c5bfad" offset="1"/>
</linearGradient>
<linearGradient id="linearGradient6646" x2="0" y1="540.8" y2="531.8" gradientTransform="matrix(1.1947 0 0 1.0576 -463.85 -529.77)" gradientUnits="userSpaceOnUse" xlink:href="#d"/>
<linearGradient id="d" x2="0" y1="540.8" y2="531.8" gradientUnits="userSpaceOnUse">
<stop stop-color="#1e1f21" offset="0"/>
<stop stop-color="#242628" offset="1"/>
</linearGradient>
<linearGradient id="e" x2="0" y1="528.8" y2="519.8" gradientUnits="userSpaceOnUse" xlink:href="#d"/>
</defs>
<g transform="scale(.665)">
<rect x="2.7671" y="3.0641" width="43.01" height="42.305" rx="0" style="fill:url(#a-3);stroke-width:1.1241"/>
<g transform="matrix(1.1947 0 0 1.0576 -463.85 -529.77)" style="fill-rule:evenodd">
<path d="m413.57 519.8-9 9 3 3h18z" style="fill:url(#h);opacity:.2"/>
<path d="m401.57 519.8-9 9 3 3h18z" style="fill:url(#i);opacity:.2"/>
<path d="m401.57 531.8-9 9 3 3h18z" style="fill:url(#j);opacity:.2"/>
<path transform="translate(384.57,499.8)" d="m29 32-9 9 3 3h18z" style="fill:url(#g);opacity:.2"/>
</g>
<path d="m43.387 19.986-9.5577 22.21 3.5841 3.1729h8.363v-23.268z" style="fill-rule:evenodd;fill:url(#linearGradient6644);opacity:.2;stroke-width:1.1241"/>
<rect x="33.83" y="19.986" width="9.5577" height="22.21" rx="0" style="fill:url(#b-6);stroke-width:1.1241"/>
<rect x="5.1565" y="5.1794" width="38.231" height="9.5186" style="fill:url(#c-7);stroke-width:1.1241"/>
<path d="m36.219 35.851v1.0576h4.7789v-1.0576zm0 2.1153v1.0576h4.7789v-1.0576z" style="fill:#fff;stroke-width:1.1241"/>
<g transform="matrix(1.1947 0 0 1.0576 -463.85 -529.77)" style="fill:#383432">
<rect x="418.57" y="506.8" width="3" height="1"/>
<rect x="421.57" y="507.8" width="1" height="5"/>
<rect x="418.57" y="512.8" width="3" height="1"/>
<rect x="417.57" y="507.8" width="1" height="5"/>
</g>
<rect x="5.1565" y="32.678" width="10.752" height="9.5186" rx="0" style="fill:url(#linearGradient6646);stroke-width:1.1241"/>
<g transform="matrix(1.1947 0 0 1.0576 -463.85 -529.77)" style="fill:url(#e)">
<rect x="392.57" y="519.8" width="9" height="9" rx="0" style="fill:url(#e)"/>
<rect x="404.57" y="519.8" width="9" height="9" rx="0" style="fill:url(#e)"/>
</g>
<rect x="19.493" y="32.678" width="10.752" height="9.5186" rx="0" style="fill:url(#linearGradient6646);stroke-width:1.1241"/>
<g transform="matrix(1.1947 0 0 1.0576 -463.85 -529.77)" style="fill:#fff">
<path transform="translate(384.57,499.8)" d="m12 22v2h-2v1h2v2h1v-2h2v-1h-2v-2z"/>
<rect transform="rotate(90)" x="523.8" y="-411.57" width="1" height="5" rx="0"/>
<g transform="translate(384.57,499.8)">
<path d="m12.5 34a0.5 0.5 0 0 0-0.5 0.5 0.5 0.5 0 0 0 0.5 0.5 0.5 0.5 0 0 0 0.5-0.5 0.5 0.5 0 0 0-0.5-0.5m-2.5 2v1h5v-1zm2.5 2a0.5 0.5 0 0 0-0.5 0.5 0.5 0.5 0 0 0 0.5 0.5 0.5 0.5 0 0 0 0.5-0.5 0.5 0.5 0 0 0-0.5-0.5"/>
<path d="M 22.707,34 22,34.707 23.793,36.5 22,38.293 22.707,39 24.5,37.207 26.293,39 27,38.293 25.207,36.5 27,34.707 26.293,34 24.5,35.793 Z"/>
</g>
</g>
</g>
<path transform="matrix(.5 0 0 .5 .066304 .016549)" d="m4.7043 3.9815-0.012938 56.82h53.904l1.0222-2.8664s-23.875 0.76639-32.844-4.1404c-10.516-5.7529-15.372-49.697-15.372-49.697z" style="fill:url(#linearGradient3403);mix-blend-mode:normal;stroke-linejoin:round;stroke-width:1.1624;stroke:url(#linearGradient20558)"/>
<rect transform="matrix(.46839 0 0 .46744 .90638 1.0269)" x="1.0324" y=".59551" width="62.567" height="62.867" rx="5.803" ry="6.2447" style="fill:none;stroke-linejoin:round;stroke-miterlimit:7.8;stroke-opacity:.99515;stroke-width:3.7137;stroke:url(#linearGradient4557)"/>
</svg>
